!! 00000] TT[00
!! NN
!!!OTL: Da yingtao
!!!ARE: Asia, China, Shanxi, Hequ
!! Ethnic Group: Han
!! I, 325, 2)
!!!SCT: C0806
!!!YEM: Copyright 1995, estate of Helmut Schaffrath.
**kern
*ICvox
*Ivox
*M2/4
*k[b-]
*F:
{8.cc
16cc
8a
8cc
=1
8gg
4ff
8dd
=2
8.cc
16a
16g
16a
8cc
=3
2f}
=4
{8a
8dd
8cc
8ff
=5
8.dd
16cc
8a
8g
=6
8.f
16a
8g
8d
=7
2c}
=8
{8ff
4cc
8a
=9
8.g
16a
8g
8f
=10
8d
8c
16a
16cc
16a
16g
=11
2c}
==
!!!AGN: Xiaodiao, Wuge, Errentai. Biaoda aiqing
!! sehr typisch. Titel: Vase, Amphore) schlagen.
!!    Vereinzelt Verzierungen.
!!!ONB: ESAC (Essen Associative Code) Database: CHINA
!!!AMT: simple duple
!!!AIN: vox
!!!EED: Helmut Schaffrath
!!!EEV: 1.0
*-
